X:1
T: Fletcher's Delight
C:
R:Reel
Q: 232
K:A
M:4/4
L:1/8
eA ((3AAA) eA ce|fa ec BA Bc|eA ((3AAA) eA ce|fa ec B2 A2|
eA ((3AAA) eA ce|fa ec BA Bc|eA ((3AAA) eA ce|fa ec B2 A2|
|:Ac eg a2 ae|fa ec BA FE|Ac eg a2 ae|fa ec B2 A2|
Ac eg a2 ae|fa ec BA FE|Ac eg a2 ae|fe fg ag af:|
eA ((3AAA) eA ce|fa ec BA Bc|eA ((3AAA) eA ce|fa ec B2 A2|
eA ((3AAA) eA ce|fa ec BA Bc|eA ((3AAA) eA ce|fa ec B2 A2||
